X:1
T:Title
%%score ( 1 2 3 ) 4
L:1/8
Q:1/4=90
M:4/4
K:C
V:1 treble nm="Drawbar Organ, Soprano"
V:2 treble 
V:3 treble 
V:4 bass nm="Choir Pad, Sing Again That Sweet Story"
V:1
 C2 [FA]>[F^G] [FA]3 [FA] | [^F_B][FA] [=FA]>[FG] D4 | D2 [EG]>[_E^F] [=EG]3 [EG] | %3
w: By~Carl~Harold~Lowden * * * *|||
 [EA][EG] [CG]>[CF] C4 | C2 [FA]>[F^G] [FA]3 [FA] | [_EB][Ec] [=Ec]>[EG] [EG]4 | %6
w: |||
 [CE]2 [B,G]>[B,G] [B,G]3 [B,G] | z8 |[M:3/4] z2[Q:1/4=110] c4 | z2 G4 | z2 E4 | z2 G4 | z2 F4 | %13
w: |||||||
 z2 F4 | z2 E4 | z2 E4 | z2 d4 | z2 A4 | z2 d4 | z2 [ce]4 | z2 d4 | z2 B4 | z2 c4- | c6- | c2 f4 | %25
w: ||||||||||||
 z2 _B4 | z2 A4 | z2 G4- | G2 [_Bd]4 | z2 [Ac]4 | z2 [G_B]4 | z2 [FA]4- | [FA]2 A4 | z2 e4 | %34
w: |||||||||
 z2 d4 | z2 _B4 | z2 G4 | D2 E2 [E_Bc]2- | [EBc]2 [A,CF]4- | [A,CF]6 |] %40
w: ||||||
V:2
 x8 | x8 | x8 | x8 | x8 | x8 | x8 | [B,A][B,D] [_B,CG]4 [CE^Gc]2- |[M:3/4] [CEGc]2 z2 A2 | %9
 A2 z2 z2 | F2 z2 z2 | F2 z2 z2 | F2 z2 z2 | E2 z2 z2 | D2 z2 [_B,C]2 | [_B,C]2 z2 [B,C]2 | %16
 [_B,C]2 z2 z2 | _B2 z2 z2 | _B2 z2 z2 | d2 z2 E2 | [E_Bd]2 z2 z2 | c2 z2 z2 | d2 z2 [FA]2 | %23
 [FA]2 z2 [E_B]2 | [E_B]2 z2 c2 | c2 z2 z2 | A2 z2 z2 | G2 z2 [B,DF]2 | [B,DF]2 z2 z2 | %29
 [_Bd]2 z2 z2 | [G_B]2 z2 E2 | [FA]2 z2 D2 | D2 z2 z2 | G2 z2 z2 | d2 z2 z2 | c2 z2 z2 | %36
 A2 z2 [B,DF]2 | x6 | x6 | x6 |] %40
V:3
 x8 | x8 | x8 | x8 | x8 | x8 | x8 | x8 |[M:3/4] z2 z2 [CF]2- | [CF]2 z2 [A,C]2- | %10
 [A,C]2 z2 [A,C]2- | [A,C]2 z2 [A,C]2- | [A,C]2 z2 [_B,C]2- | [B,C]2 z2 [_B,C]2- | [B,C]2 z2 z2 | %15
 x6 | z2 z2 [EG]2- | [EG]2 z2 [CE]2- | [CE]2 z2 [E_B]2- | [EB]2 z2 z2 | z2 z2 [FA]2- | %21
 [FA]2 z2 [F^G]2- | [FG]2 z2 z2 | x6 | z2 z2 [FA]2- | [FA]2 z2 [CD^F]2- | [CDF]2 z2 [B,D=F]2- | %27
 [B,DF]2 z2 z2 | z2 z2 E2- | E2 z2 E2- | E2 z2 z2 | x6 | z2 z2 [_B,D]2- | [B,D]2 z2 [F^G]2- | %34
 [FG]2 z2 [FA]2- | [FA]2 z2 [CDF]2- | [CDF]2 z2 z2 | x6 | x6 | x6 |] %40
V:4
 [F,A,]2 [F,C]>[F,B,] [F,C]3 [F,C] | [D,D][D,C] [G,B,]>[G,B,] [G,B,]4 | %2
 [G,B,]2 [C,_B,]>[C,A,] [C,B,]3 [C,B,] | [C,C][C,_B,] [F,A,]>[F,A,] [F,A,]4 | %4
 [F,A,]2 [F,C]>[F,B,] [F,C]3 [F,C] | [^F,B,][F,A,] G,>[G,C] [G,C]4 | %6
 G,2 [G,,F,]>[G,,F,] [G,,F,]3 [G,,F,] | [G,,F,][G,,F,] [C,E,]4 [C,_B,]2- | %8
[M:3/4] [C,B,]2 [F,,F,]4- | [F,,F,]2 [C,,C,]4- | [C,,C,]2 [C,,A,,]4- | [C,,A,,]2 [E,,C,]4- | %12
 [E,,C,]2 [G,,G,]4- | [G,,G,]2 [C,,C,]4- | [C,,C,]2 [G,,G,]4- | [G,,G,]2 [C,,C,]4- | %16
 [C,,C,]2 [G,,G,]4- | [G,,G,]2 [C,,C,]4- | [C,,C,]2 [G,,G,]4- | [G,,G,]2 [C,,C,]4- | %20
 [C,,C,]2 [F,,F,]4- | [F,,F,]2 [F,,F,]4- | [F,,F,]2 [F,,F,]4- | [F,,F,]2 [G,,G,]4- | %24
 [G,,G,]2 [A,,A,]4- | [A,,A,]2 [D,,D,]4- | [D,,D,]2 [A,,A,]4- | [A,,A,]2 [D,,D,]4- | %28
 [D,,D,]2 [G,,G,]4- | [G,,G,]2 [C,,C,]4- | [C,,C,]2 [^C,,C,]4 | [D,,D,]2 [D,,D,]4- | %32
 [D,,D,]2 [_B,,,_B,,]4- | [B,,,B,,]2 [=B,,,=B,,]4- | [B,,,B,,]2 [C,,C,]4- | [C,,C,]2 [D,,D,]4- | %36
 [D,,D,]2 [_B,,,G,,]4- | [B,,,G,,]2 [C,,C,]4- | [C,,C,]2 [F,,F,]2 [C,,C,]2 | %39
 [A,,,A,,]2 [F,,,F,,]4 |] %40

